assets/icons/librescoot-brake-left.svg

<svg xmlns="http://www.w3.org/2000/svg" width="1440" height="1440" fill="none" viewBox="0 0 1440 1440"><path fill="#fff" d="m1327.18 574.071-196.74 189.167c-18.09-31.077-45.12-56.75-114.03-56.75-76.379 1.288-89.178 2.702-120.255 41.887-31.078 39.185-174.304 39.185-174.304 39.185H189.482l.016-.019c-.455.008-.91.019-1.367.019-41.043 0-74.316-33.273-74.316-74.316s33.273-74.315 74.316-74.315 74.315 33.272 74.315 74.315l1.539 1.56c7.836 7.828 17.934 15.98 36.295 16.006h421.571l174.304-179.709c42.451-39.157 70.052-52.322 127.015-58.101h304.01zm0 286.453h-.01c0 .449.01.9.01 1.351 0 47.013-38.11 85.125-85.12 85.125-57.82 0-95.94-38.112-95.94-85.125 0-.451.02-.902.02-1.351h-.02v-87.828l181.06-170.25z"/></svg>

<svg width="1440" height="1440" viewBox="0 0 1440 1440" fill="none" xmlns="http://www.w3.org/2000/svg">
<path d="M1327.18 574.071L1130.44 763.238C1112.35 732.161 1085.32 706.488 1016.41 706.488C940.031 707.776 927.232 709.19 896.155 748.375C865.077 787.56 721.851 787.56 721.851 787.56H189.482L189.498 787.541C189.043 787.549 188.588 787.56 188.131 787.56C147.088 787.56 113.815 754.287 113.815 713.244C113.815 672.201 147.088 638.929 188.131 638.929C229.174 638.929 262.446 672.201 262.446 713.244L263.985 714.804C271.821 722.632 281.919 730.784 300.28 730.81H721.851L896.155 551.101C938.606 511.944 966.207 498.779 1023.17 493H1327.18V574.071Z" fill="white"/>
<path d="M1327.18 860.524H1327.17C1327.17 860.973 1327.18 861.424 1327.18 861.875C1327.18 908.888 1289.07 947 1242.06 947C1184.24 947 1146.12 908.888 1146.12 861.875C1146.12 861.424 1146.14 860.973 1146.14 860.524H1146.12V772.696L1327.18 602.446V860.524Z" fill="white"/>
</svg>
